X: 20905
T: Josephine Keegan's
R: reel
M: 4/4
K: Gmajor
d2 BG DGBd|dcBc AD ~D2|dcBG DGBd|ceag fage|
d2 BG DGBd|dcBc AD ~D2|dcBG DGBd|cA ~A2 cdef||
~g2 dg edef|~g3 a bgaf|~g2 fd (3efg dB|cA ~A2 cdef|
~g2 dg edef|~g3 a bgaf|~g2 fd edBd|cBAg fage||

